packages/foundations/assets/icons/functional/images/editing/cross.svg

<svg xmlns="http://www.w3.org/2000/svg" width="32" height="32" fill="none"><path fill="#1A1C1F" fill-rule="evenodd" d="M6.479 6.156c-.415.249-.588.833-.373 1.261.05.101 1.979 2.073 4.285 4.383l4.194 4.2-4.249 4.253c-3.055 3.058-4.261 4.299-4.291 4.414-.205.793.436 1.482 1.208 1.297.223-.054.541-.358 4.494-4.304L16 17.415l4.227 4.22c2.324 2.321 4.285 4.25 4.357 4.287.219.112.652.083.907-.06.438-.247.624-.838.403-1.279-.05-.101-1.979-2.073-4.286-4.383L17.414 16l4.221-4.227c2.321-2.324 4.25-4.285 4.287-4.357.116-.227.083-.659-.069-.919-.238-.405-.786-.587-1.25-.414-.083.031-2.014 1.919-4.376 4.279L16 14.586l-4.227-4.224c-2.371-2.369-4.292-4.248-4.376-4.28-.271-.1-.683-.067-.918.074"/></svg>

<svg width="32" height="32" viewBox="0 0 32 32" fill="none" xmlns="http://www.w3.org/2000/svg"><path d="M6.479 6.156 C 6.064 6.405,5.891 6.989,6.106 7.417 C 6.156 7.518,8.085 9.490,10.391 11.800 L 14.585 16.000 10.336 20.253 C 7.281 23.311,6.075 24.552,6.045 24.667 C 5.840 25.460,6.481 26.149,7.253 25.964 C 7.476 25.910,7.794 25.606,11.747 21.660 L 16.000 17.415 20.227 21.635 C 22.551 23.956,24.512 25.885,24.584 25.922 C 24.803 26.034,25.236 26.005,25.491 25.862 C 25.929 25.615,26.115 25.024,25.894 24.583 C 25.844 24.482,23.915 22.510,21.608 20.200 L 17.414 16.000 21.635 11.773 C 23.956 9.449,25.885 7.488,25.922 7.416 C 26.038 7.189,26.005 6.757,25.853 6.497 C 25.615 6.092,25.067 5.910,24.603 6.083 C 24.520 6.114,22.589 8.002,20.227 10.362 L 16.000 14.586 11.773 10.362 C 9.402 7.993,7.481 6.114,7.397 6.082 C 7.126 5.982,6.714 6.015,6.479 6.156 " fill="#1A1C1F" stroke="none" fill-rule="evenodd"></path></svg>
